app/img/header/sub-menu-arrow-icon.svg

<svg width="15" height="12" viewBox="0 0 15 12" fill="none" xmlns="http://www.w3.org/2000/svg">
<g opacity="0.6">
<path d="M14.2737 5.89306L14.4592 5.81827C14.4351 5.7585 14.3993 5.70507 14.3539 5.66045L9.35511 0.660547L9.35509 0.660532C9.16866 0.474094 8.86591 0.474094 8.67947 0.660532C8.49303 0.84697 8.49303 1.14971 8.67947 1.33615L12.8636 5.52084H1.23923C0.975437 5.52084 0.761449 5.73483 0.761449 5.99862C0.761449 6.26241 0.975437 6.4764 1.23923 6.4764H12.8636L8.67947 10.6605C8.58621 10.7538 8.53923 10.8763 8.53923 10.9986C8.53923 11.1208 8.58609 11.2429 8.67819 11.336L8.67928 11.3371C8.86619 11.523 9.16782 11.523 9.35473 11.3371L9.35509 11.3367L14.3545 6.33726C14.3993 6.29246 14.4338 6.23956 14.4577 6.1837L14.4577 6.18371L14.4582 6.18242C14.5072 6.06529 14.5072 5.93306 14.4582 5.81592L14.2737 5.89306ZM14.2737 5.89306C14.302 5.96084 14.302 6.03751 14.2737 6.10528L14.2131 5.80251C14.2392 5.82806 14.2598 5.85862 14.2737 5.89306Z" fill="white" stroke="white" stroke-width="0.4"/>
</g>
</svg>

<svg width="15" height="12" fill="none" xmlns="http://www.w3.org/2000/svg"><path d="M14.274 5.893l.185-.075a.464.464 0 00-.105-.158l-4.999-5h0a.478.478 0 00-.676.676l4.185 4.185H1.239a.478.478 0 000 .955h11.625l-4.185 4.185a.477.477 0 000 .675v.001a.479.479 0 00.676 0h0l5-5a.49.49 0 00.103-.153h0v-.002a.475.475 0 000-.366l-.184.077zm0 0a.276.276 0 010 .212l-.06-.302a.265.265 0 01.06.09z" fill="#fff" stroke="#fff" stroke-width=".4" opacity=".6"/></svg>
